examples/composition/statistical_dark.svg

<svg height="600" viewBox="0 0 1100 600" width="1100" xmlns="http://www.w3.org/2000/svg">
<rect fill="#1e1e1e" height="507" shape-rendering="crispEdges" width="1031.7999" x="47.4" y="48"/>
<text fill="#ffffff" font-family="sans-serif" font-size="16" x="371.3" y="32">
Daily Measurement vs. 7-day Rolling Mean
</text>
<text fill="#dddddd" font-family="sans-serif" font-size="12" x="552.5" y="590">
Day
</text>
<text fill="#dddddd" font-family="sans-serif" font-size="12" transform="rotate(-90 22, 326.7)" x="22" y="326.7">
Reading
</text>
<path d="M94.299995,555 L94.299995,48" fill="none" shape-rendering="crispEdges" stroke="#3a3a3a" stroke-width="1"/>
<path d="M328.8,555 L328.8,48" fill="none" shape-rendering="crispEdges" stroke="#3a3a3a" stroke-width="1"/>
<path d="M563.3,555 L563.3,48" fill="none" shape-rendering="crispEdges" stroke="#3a3a3a" stroke-width="1"/>
<path d="M797.7999,555 L797.7999,48" fill="none" shape-rendering="crispEdges" stroke="#3a3a3a" stroke-width="1"/>
<path d="M1032.2999,555 L1032.2999,48" fill="none" shape-rendering="crispEdges" stroke="#3a3a3a" stroke-width="1"/>
<path d="M47.4,531.9545 L1079.2,531.9545" fill="none" shape-rendering="crispEdges" stroke="#3a3a3a" stroke-width="1"/>
<path d="M47.4,416.72726 L1079.2,416.72726" fill="none" shape-rendering="crispEdges" stroke="#3a3a3a" stroke-width="1"/>
<path d="M47.4,301.5 L1079.2,301.5" fill="none" shape-rendering="crispEdges" stroke="#3a3a3a" stroke-width="1"/>
<path d="M47.4,186.27272 L1079.2,186.27272" fill="none" shape-rendering="crispEdges" stroke="#3a3a3a" stroke-width="1"/>
<path d="M47.4,71.045456 L1079.2,71.045456" fill="none" shape-rendering="crispEdges" stroke="#3a3a3a" stroke-width="1"/>
<path d="M94.299995,509.88962 L102.11666,500.05634 L109.93333,500.45734 L117.75,507.22235 L125.566666,489.3789 L133.38333,439.52917 L141.2,437.76944 L149.01666,439.44394 L156.83333,435.91394 L164.65,395.47513 L172.46666,395.73727 L180.28333,394.79254 L188.09999,387.44684 L195.91666,428.03925 L203.73332,430.84503 L211.54999,382.46646 L219.36665,429.48016 L227.18332,431.90393 L234.99998,448.16306 L242.81665,430.5725 L250.63332,427.84167 L258.44998,434.47995 L266.26666,498.0897 L274.0833,481.7466 L281.9,469.08377 L289.71664,495.8583 L297.53333,509.63205 L305.34998,525.94366 L313.16666,521.08325 L320.9833,505.2354 L328.8,514.4636 L336.61664,494.05637 L344.43332,490.12064 L352.24997,527.8414 L360.06665,528.5619 L367.8833,487.07742 L375.69998,482.20038 L383.51663,469.5677 L391.3333,425.1236 L399.14996,432.38425 L406.96664,400.0213 L414.7833,376.6781 L422.59998,378.25552 L430.41663,348.30307 L438.2333,327.1507 L446.05,341.51395 L453.86664,340.98108 L461.68332,282.17746 L469.49997,286.04553 L477.31665,268.34375 L485.1333,263.13956 L492.94998,270.24918 L500.76663,276.57388 L508.5833,229.73668 L516.39996,234.91528 L524.2166,279.3433 L532.0333,248.97571 L539.85,257.17688 L547.6666,274.63626 L555.4833,277.3659 L563.3,312.92886 L571.11664,324.66965 L578.9333,299.68228 L586.74994,305.00574 L594.56665,345.42725 L602.3833,317.86115 L610.19995,371.55002 L618.0166,376.47583 L625.8333,362.52817 L633.64996,370.3661 L641.4666,397.37473 L649.28326,395.95142 L657.1,383.02997 L664.9166,349.1662 L672.7333,384.95374 L680.5499,347.62933 L688.36664,369.61423 L696.1833,338.4961 L703.99994,346.06992 L711.81665,340.4103 L719.6333,329.1074 L727.44995,299.20218 L735.2666,283.06042 L743.0833,276.25162 L750.89996,265.585 L758.7166,207.19638 L766.53326,190.66287 L774.35,194.43405 L782.1666,156.70088 L789.9833,146.76572 L797.7999,136.16776 L805.61664,112.78628 L813.4333,139.28935 L821.24994,138.13583 L829.0666,93.059654 L836.8833,103.46462 L844.69995,125.995674 L852.5166,127.39696 L860.33325,139.91257 L868.14996,145.5633 L875.9666,105.52604 L883.78326,120.14288 L891.5999,152.30444 L899.4166,174.79909 L907.2333,145.76567 L915.0499,165.54112 L922.8666,202.90648 L930.6833,187.56879 L938.49994,226.78177 L946.3166,198.67418 L954.1333,190.09366 L961.94995,212.10359 L969.7666,216.64635 L977.58325,223.04779 L985.39996,224.57474 L993.2166,203.26384 L1001.03326,201.29723 L1008.8499,234.17897 L1016.6666,206.26193 L1024.4833,219.63922" fill="none" stroke="#cbd5e1" stroke-width="1.5"/>
<path d="M94.299995,504.40643 L102.11666,501.4009 L109.93333,491.08896 L117.75,483.4719 L125.566666,473.4082 L133.38333,464.24503 L141.2,449.24756 L149.01666,433.3211 L156.83333,419.80878 L164.65,412.36844 L172.46666,410.97842 L180.28333,409.75 L188.09999,402.11465 L195.91666,406.9725 L203.73332,412.13916 L211.54999,419.76352 L219.36665,425.92435 L227.18332,425.89612 L234.99998,426.4154 L242.81665,442.93298 L250.63332,450.39963 L258.44998,455.71103 L266.26666,462.52463 L274.0833,473.81885 L281.9,487.83344 L289.71664,500.20532 L297.53333,501.22617 L305.34998,505.90002 L313.16666,509.46753 L320.9833,508.64786 L328.8,511.24918 L336.61664,511.62323 L344.43332,506.76526 L352.24997,503.47452 L360.06665,497.06082 L367.8833,487.2133 L375.69998,478.96524 L383.51663,460.70523 L391.3333,439.00754 L399.14996,423.46155 L406.96664,404.33337 L414.7833,383.98807 L422.59998,372.04385 L430.41663,358.98624 L438.2333,342.1514 L446.05,329.2039 L453.86664,313.50223 L461.68332,301.336 L469.49997,293.2072 L477.31665,283.93005 L485.1333,268.038 L492.94998,261.28625 L500.76663,260.3288 L508.5833,257.56195 L516.39996,256.7101 L524.2166,257.33685 L532.0333,257.45 L539.85,269.3346 L547.6666,282.15665 L555.4833,285.06223 L563.3,293.0665 L571.11664,305.6737 L578.9333,311.8487 L586.74994,325.30356 L594.56665,334.38168 L602.3833,339.79007 L610.19995,349.88776 L618.0166,363.0833 L625.8333,370.30106 L633.64996,379.61087 L641.4666,376.4132 L649.28326,377.62433 L657.1,375.4959 L664.9166,375.38852 L672.7333,366.9773 L680.5499,359.85135 L688.36664,353.76285 L696.1833,350.89728 L703.99994,338.64706 L711.81665,329.42294 L719.6333,316.08542 L727.44995,305.66956 L735.2666,285.83047 L743.0833,264.438 L750.89996,245.19893 L758.7166,224.8416 L766.53326,205.37093 L774.35,185.35895 L782.1666,163.53056 L789.9833,153.82956 L797.7999,146.3257 L805.61664,131.84364 L813.4333,124.23846 L821.24994,121.27131 L829.0666,120.01834 L836.8833,123.893524 L844.69995,124.7898 L852.5166,120.131256 L860.33325,124.00029 L868.14996,130.9774 L875.9666,137.94933 L883.78326,140.57343 L891.5999,144.23465 L899.4166,152.42653 L907.2333,164.14693 L915.0499,179.38104 L922.8666,186.0053 L930.6833,188.19023 L938.49994,197.66708 L946.3166,204.96783 L954.1333,207.84515 L961.94995,213.13173 L969.7666,209.77202 L977.58325,210.14674 L985.39996,216.44464 L993.2166,215.61012 L1001.03326,216.03767 L1008.8499,214.86932 L1016.6666,212.92824 L1024.4833,215.34435" fill="none" stroke="#2e7cb8" stroke-width="2.5"/>
<path d="M94.299995,555 L94.299995,560" fill="none" shape-rendering="crispEdges" stroke="#cccccc" stroke-width="1"/>
<text fill="#cccccc" font-family="sans-serif" font-size="12" x="90.7" y="572">
0
</text>
<path d="M328.8,555 L328.8,560" fill="none" shape-rendering="crispEdges" stroke="#cccccc" stroke-width="1"/>
<text fill="#cccccc" font-family="sans-serif" font-size="12" x="321.59998" y="572">
30
</text>
<path d="M563.3,555 L563.3,560" fill="none" shape-rendering="crispEdges" stroke="#cccccc" stroke-width="1"/>
<text fill="#cccccc" font-family="sans-serif" font-size="12" x="556.1" y="572">
60
</text>
<path d="M797.7999,555 L797.7999,560" fill="none" shape-rendering="crispEdges" stroke="#cccccc" stroke-width="1"/>
<text fill="#cccccc" font-family="sans-serif" font-size="12" x="790.5999" y="572">
90
</text>
<path d="M1032.2999,555 L1032.2999,560" fill="none" shape-rendering="crispEdges" stroke="#cccccc" stroke-width="1"/>
<text fill="#cccccc" font-family="sans-serif" font-size="12" x="1021.49994" y="572">
120
</text>
<path d="M47.4,531.9545 L42.4,531.9545" fill="none" shape-rendering="crispEdges" stroke="#cccccc" stroke-width="1"/>
<text fill="#cccccc" font-family="sans-serif" font-size="12" x="23" y="536.7545">
50
</text>
<path d="M47.4,416.72726 L42.4,416.72726" fill="none" shape-rendering="crispEdges" stroke="#cccccc" stroke-width="1"/>
<text fill="#cccccc" font-family="sans-serif" font-size="12" x="23" y="421.52725">
60
</text>
<path d="M47.4,301.5 L42.4,301.5" fill="none" shape-rendering="crispEdges" stroke="#cccccc" stroke-width="1"/>
<text fill="#cccccc" font-family="sans-serif" font-size="12" x="23" y="306.3">
70
</text>
<path d="M47.4,186.27272 L42.4,186.27272" fill="none" shape-rendering="crispEdges" stroke="#cccccc" stroke-width="1"/>
<text fill="#cccccc" font-family="sans-serif" font-size="12" x="23" y="191.07272">
80
</text>
<path d="M47.4,71.045456 L42.4,71.045456" fill="none" shape-rendering="crispEdges" stroke="#cccccc" stroke-width="1"/>
<text fill="#cccccc" font-family="sans-serif" font-size="12" x="23" y="75.84546">
90
</text>
<path d="M47.4,555 L1079.2,555" fill="none" shape-rendering="crispEdges" stroke="#000000" stroke-width="1"/>
<path d="M47.4,48 L47.4,555" fill="none" shape-rendering="crispEdges" stroke="#000000" stroke-width="1"/>
<rect fill="#1e1e1e" height="56" shape-rendering="crispEdges" width="149" x="914.19995" y="64"/>
<path d="M914.19995,64 L1063.2,64 L1063.2,120 L914.19995,120 z" fill="none" shape-rendering="crispEdges" stroke="#cccccc" stroke-width="1"/>
<path d="M922.19995,78 L934.19995,78" fill="none" shape-rendering="crispEdges" stroke="#cbd5e1" stroke-width="2"/>
<text fill="#dddddd" font-family="sans-serif" font-size="12" x="940.19995" y="82">
raw
</text>
<path d="M922.19995,98 L934.19995,98" fill="none" shape-rendering="crispEdges" stroke="#2e7cb8" stroke-width="2"/>
<text fill="#dddddd" font-family="sans-serif" font-size="12" x="940.19995" y="102">
rolling mean (7d)
</text>
</svg>

<svg xmlns="http://www.w3.org/2000/svg" width="1100" height="600" viewBox="0 0 1100 600"><path fill="#1e1e1e" d="M47.4 48h1031.8v507H47.4z" shape-rendering="crispEdges"/><text x="371.3" y="32" fill="#fff" font-family="sans-serif" font-size="16">
Daily Measurement vs. 7-day Rolling Mean
</text><text x="552.5" y="590" fill="#ddd" font-family="sans-serif" font-size="12">
Day
</text><text x="22" y="326.7" fill="#ddd" font-family="sans-serif" font-size="12" transform="rotate(-90 22 326.7)">
Reading
</text><path fill="none" stroke="#3a3a3a" d="M94.3 555V48m234.5 507V48m234.5 507V48m234.5 507V48m234.5 507V48M47.4 531.955h1031.8M47.4 416.727h1031.8M47.4 301.5h1031.8M47.4 186.273h1031.8M47.4 71.045h1031.8" shape-rendering="crispEdges"/><path fill="none" stroke="#cbd5e1" stroke-width="1.5" d="m94.3 509.89 7.817-9.834 7.816.401 7.817 6.765 7.817-17.843 7.816-49.85 7.817-1.76 7.817 1.675 7.816-3.53 7.817-40.439 7.817.262 7.816-.944 7.817-7.346 7.817 40.592 7.816 2.806 7.817-48.379 7.817 47.014 7.816 2.424 7.817 16.26 7.817-17.591 7.816-2.731 7.817 6.638 7.817 63.61 7.816-16.343 7.817-12.663 7.817 26.774 7.816 13.774 7.817 16.312 7.817-4.86 7.816-15.849 7.817 9.229 7.817-20.408 7.816-3.935 7.817 37.72 7.817.72 7.816-41.484 7.817-4.877 7.817-12.632 7.816-44.444 7.817 7.26 7.817-32.363 7.816-23.343 7.817 1.578 7.817-29.953 7.816-21.152 7.817 14.363 7.817-.533 7.816-58.804 7.817 3.869 7.817-17.702 7.816-5.204 7.817 7.11 7.817 6.324 7.816-46.837 7.817 5.178 7.817 44.428 7.816-30.367 7.817 8.2 7.817 17.46 7.816 2.73 7.817 35.563 7.817 11.74 7.816-24.987 7.817 5.324 7.817 40.421 7.816-27.566 7.817 53.689 7.817 4.926 7.816-13.948 7.817 7.838 7.817 27.009 7.816-1.424 7.817-12.921 7.817-33.864 7.816 35.788 7.817-37.325 7.817 21.985 7.816-31.118L704 346.07l7.817-5.66 7.816-11.303 7.817-29.905 7.817-16.142 7.816-6.808 7.817-10.667 7.817-58.389 7.816-16.533 7.817 3.771 7.817-37.733 7.816-9.935 7.817-10.598 7.817-23.382 7.816 26.503 7.817-1.153 7.817-45.076 7.816 10.405 7.817 22.53 7.817 1.402 7.816 12.516 7.817 5.65 7.817-40.037 7.816 14.617 7.817 32.161 7.817 22.495 7.816-29.033 7.817 19.775 7.817 37.365 7.816-15.337 7.817 39.213 7.817-28.108 7.816-8.58 7.817 22.01 7.817 4.542 7.816 6.402 7.817 1.527 7.817-21.311 7.816-1.967 7.817 32.882 7.817-27.917 7.816 13.377"/><path fill="none" stroke="#2e7cb8" stroke-width="2.5" d="m94.3 504.406 7.817-3.005 7.816-10.312 7.817-7.617 7.817-10.064 7.816-9.163 7.817-14.997 7.817-15.927 7.816-13.512 7.817-7.44 7.817-1.39 7.816-1.229 7.817-7.635 7.817 4.858 7.816 5.166 7.817 7.625 7.817 6.16 7.816-.028 7.817.52 7.817 16.517 7.816 7.467 7.817 5.311 7.817 6.814 7.816 11.294 7.817 14.014 7.817 12.372 7.816 1.021 7.817 4.674 7.817 3.568 7.816-.82 7.817 2.601 7.817.374 7.816-4.858 7.817-3.29 7.817-6.414 7.816-9.848 7.817-8.248 7.817-18.26 7.816-21.697 7.817-15.546 7.817-19.129 7.816-20.345 7.817-11.944 7.817-13.058 7.816-16.835 7.817-12.947 7.817-15.702 7.816-12.166 7.817-8.129 7.817-9.277 7.816-15.892 7.817-6.752 7.817-.957 7.816-2.767 7.817-.852 7.817.627 7.816.113 7.817 11.885 7.817 12.822 7.816 2.905 7.817 8.005 7.817 12.607 7.816 6.175 7.817 13.455 7.817 9.078 7.816 5.408 7.817 10.098 7.817 13.195 7.816 7.218 7.817 9.31 7.817-3.198 7.816 1.211 7.817-2.128 7.817-.107 7.816-8.412 7.817-7.126 7.817-6.088 7.816-2.866 7.817-12.25 7.817-9.224 7.816-13.338 7.817-10.415 7.817-19.84 7.816-21.392 7.817-19.24 7.817-20.356 7.816-19.471 7.817-20.012 7.817-21.828 7.816-9.701 7.817-7.504 7.817-14.482 7.816-7.606 7.817-2.967 7.817-1.253 7.816 3.876 7.817.896 7.817-4.659 7.816 3.87 7.817 6.976 7.817 6.972 7.816 2.624 7.817 3.662 7.817 8.192 7.816 11.72 7.817 15.234 7.817 6.624 7.816 2.185 7.817 9.477 7.817 7.3 7.816 2.878 7.817 5.287 7.817-3.36 7.816.375 7.817 6.298 7.817-.835 7.816.428 7.817-1.169 7.817-1.94 7.816 2.415"/><path fill="none" stroke="#ccc" d="M94.3 555v5" shape-rendering="crispEdges"/><text x="90.7" y="572" fill="#ccc" font-family="sans-serif" font-size="12">
0
</text><path fill="none" stroke="#ccc" d="M328.8 555v5" shape-rendering="crispEdges"/><text x="321.6" y="572" fill="#ccc" font-family="sans-serif" font-size="12">
30
</text><path fill="none" stroke="#ccc" d="M563.3 555v5" shape-rendering="crispEdges"/><text x="556.1" y="572" fill="#ccc" font-family="sans-serif" font-size="12">
60
</text><path fill="none" stroke="#ccc" d="M797.8 555v5" shape-rendering="crispEdges"/><text x="790.6" y="572" fill="#ccc" font-family="sans-serif" font-size="12">
90
</text><path fill="none" stroke="#ccc" d="M1032.3 555v5" shape-rendering="crispEdges"/><text x="1021.5" y="572" fill="#ccc" font-family="sans-serif" font-size="12">
120
</text><path fill="none" stroke="#ccc" d="M47.4 531.955h-5" shape-rendering="crispEdges"/><text x="23" y="536.755" fill="#ccc" font-family="sans-serif" font-size="12">
50
</text><path fill="none" stroke="#ccc" d="M47.4 416.727h-5" shape-rendering="crispEdges"/><text x="23" y="421.527" fill="#ccc" font-family="sans-serif" font-size="12">
60
</text><path fill="none" stroke="#ccc" d="M47.4 301.5h-5" shape-rendering="crispEdges"/><text x="23" y="306.3" fill="#ccc" font-family="sans-serif" font-size="12">
70
</text><path fill="none" stroke="#ccc" d="M47.4 186.273h-5" shape-rendering="crispEdges"/><text x="23" y="191.073" fill="#ccc" font-family="sans-serif" font-size="12">
80
</text><path fill="none" stroke="#ccc" d="M47.4 71.045h-5" shape-rendering="crispEdges"/><text x="23" y="75.845" fill="#ccc" font-family="sans-serif" font-size="12">
90
</text><path fill="none" stroke="#000" d="M47.4 555h1031.8M47.4 48v507" shape-rendering="crispEdges"/><path fill="#1e1e1e" d="M914.2 64h149v56h-149z" shape-rendering="crispEdges"/><path fill="none" stroke="#ccc" d="M914.2 64h149v56h-149z" shape-rendering="crispEdges"/><path fill="none" stroke="#cbd5e1" stroke-width="2" d="M922.2 78h12" shape-rendering="crispEdges"/><text x="940.2" y="82" fill="#ddd" font-family="sans-serif" font-size="12">
raw
</text><path fill="none" stroke="#2e7cb8" stroke-width="2" d="M922.2 98h12" shape-rendering="crispEdges"/><text x="940.2" y="102" fill="#ddd" font-family="sans-serif" font-size="12">
rolling mean (7d)
</text></svg>
